src/assets/clubs_6.svg

<?xml version="1.0" encoding="UTF-8"?>
<svg xmlns="http://www.w3.org/2000/svg" xmlns:xlink="http://www.w3.org/1999/xlink" width="99px" height="140px" viewBox="0 0 99 140" version="1.1">
<g id="surface1">
<path style="fill-rule:nonzero;fill:rgb(100%,100%,100%);fill-opacity:1;stroke-width:0.756;stroke-linecap:butt;stroke-linejoin:miter;stroke:rgb(50.196078%,50.196078%,50.196078%);stroke-opacity:1;stroke-miterlimit:4;" d="M 9.297538 719.743173 L 224.702368 719.743173 C 229.632765 719.743173 233.621402 723.747721 233.621402 728.681399 L 233.621402 1043.043061 C 233.621402 1047.976739 229.632765 1051.981287 224.702368 1051.981287 L 9.297538 1051.981287 C 4.36714 1051.981287 0.378504 1047.976739 0.378504 1043.043061 L 0.378504 728.681399 C 0.378504 723.747721 4.36714 719.743173 9.297538 719.743173 Z M 9.297538 719.743173 " transform="matrix(0.423077,0,0,0.42042,0.0000199974,-302.434571)"/>
<path style=" stroke:none;fill-rule:nonzero;fill:rgb(0%,0%,0%);fill-opacity:1;" d="M 73.175781 74.867188 L 75.210938 74.867188 L 75.210938 81.914062 L 73.175781 81.914062 Z M 73.175781 74.867188 "/>
<path style=" stroke:none;fill-rule:nonzero;fill:rgb(0%,0%,0%);fill-opacity:1;" d="M 85.390625 71.5 C 86.996094 74.375 85.953125 78.007812 83.066406 79.605469 C 80.179688 81.203125 76.539062 80.167969 74.933594 77.289062 C 74.503906 76.523438 74.253906 75.671875 74.195312 74.796875 C 73.972656 78.085938 71.117188 80.566406 67.820312 80.34375 C 64.527344 80.121094 62.035156 77.273438 62.261719 73.988281 C 62.484375 70.703125 65.335938 68.222656 68.632812 68.445312 C 69.5 68.503906 70.339844 68.75 71.113281 69.167969 C 68.289062 67.476562 67.363281 63.816406 69.058594 60.992188 C 70.753906 58.164062 74.425781 57.242188 77.261719 58.933594 C 80.097656 60.621094 81.023438 64.28125 79.328125 67.109375 C 78.816406 67.960938 78.101562 68.667969 77.253906 69.179688 C 80.144531 67.582031 83.785156 68.621094 85.390625 71.5 Z M 85.390625 71.5 "/>
<path style=" stroke:none;fill-rule:nonzero;fill:rgb(0%,0%,0%);fill-opacity:1;" d="M 23.785156 32.773438 L 25.820312 32.773438 L 25.820312 39.820312 L 23.785156 39.820312 Z M 23.785156 32.773438 "/>
<path style=" stroke:none;fill-rule:nonzero;fill:rgb(0%,0%,0%);fill-opacity:1;" d="M 36 29.40625 C 37.605469 32.285156 36.5625 35.914062 33.675781 37.511719 C 30.789062 39.113281 27.148438 38.074219 25.542969 35.195312 C 25.117188 34.429688 24.863281 33.578125 24.804688 32.703125 C 24.582031 35.992188 21.726562 38.472656 18.429688 38.25 C 15.136719 38.027344 12.644531 35.179688 12.871094 31.894531 C 13.09375 28.609375 15.949219 26.128906 19.242188 26.351562 C 20.109375 26.410156 20.949219 26.65625 21.722656 27.074219 C 18.898438 25.382812 17.972656 21.722656 19.667969 18.898438 C 21.363281 16.070312 25.035156 15.148438 27.871094 16.839844 C 30.707031 18.527344 31.632812 22.1875 29.9375 25.015625 C 29.425781 25.867188 28.710938 26.574219 27.863281 27.085938 C 30.753906 25.488281 34.394531 26.527344 36 29.40625 Z M 36 29.40625 "/>
<path style=" stroke:none;fill-rule:nonzero;fill:rgb(0%,0%,0%);fill-opacity:1;" d="M 6.9375 23.441406 L 7.617188 23.441406 L 7.617188 25.789062 L 6.9375 25.789062 Z M 6.9375 23.441406 "/>
<path style=" stroke:none;fill-rule:nonzero;fill:rgb(0%,0%,0%);fill-opacity:1;" d="M 11.011719 22.316406 C 11.546875 23.277344 11.199219 24.488281 10.238281 25.019531 C 9.273438 25.550781 8.058594 25.207031 7.523438 24.246094 C 7.382812 23.992188 7.296875 23.707031 7.277344 23.417969 C 7.203125 24.511719 6.253906 25.339844 5.15625 25.265625 C 4.054688 25.191406 3.226562 24.242188 3.300781 23.148438 C 3.375 22.050781 4.328125 21.226562 5.425781 21.300781 C 5.714844 21.320312 5.996094 21.402344 6.25 21.539062 C 5.308594 20.976562 5.003906 19.757812 5.566406 18.8125 C 6.132812 17.871094 7.355469 17.566406 8.300781 18.128906 C 9.246094 18.691406 9.554688 19.910156 8.988281 20.855469 C 8.820312 21.136719 8.582031 21.375 8.296875 21.542969 C 9.261719 21.011719 10.476562 21.359375 11.011719 22.316406 Z M 11.011719 22.316406 "/>
<path style=" stroke:none;fill-rule:nonzero;fill:rgb(0%,0%,0%);fill-opacity:1;" d="M 91.621094 116.558594 L 92.300781 116.558594 L 92.300781 114.210938 L 91.621094 114.210938 Z M 91.621094 116.558594 "/>
<path style=" stroke:none;fill-rule:nonzero;fill:rgb(0%,0%,0%);fill-opacity:1;" d="M 95.691406 117.683594 C 96.226562 116.722656 95.882812 115.511719 94.917969 114.980469 C 93.957031 114.449219 92.742188 114.792969 92.207031 115.753906 C 92.066406 116.007812 91.980469 116.292969 91.960938 116.582031 C 91.886719 115.488281 90.9375 114.660156 89.835938 114.734375 C 88.738281 114.808594 87.910156 115.757812 87.984375 116.851562 C 88.058594 117.949219 89.007812 118.773438 90.109375 118.699219 C 90.394531 118.679688 90.675781 118.597656 90.933594 118.460938 C 89.992188 119.023438 89.683594 120.242188 90.25 121.1875 C 90.8125 122.128906 92.039062 122.433594 92.984375 121.871094 C 93.929688 121.308594 94.238281 120.089844 93.671875 119.144531 C 93.5 118.863281 93.265625 118.625 92.980469 118.457031 C 93.945312 118.988281 95.160156 118.640625 95.691406 117.683594 Z M 95.691406 117.683594 "/>
<path style=" stroke:none;fill-rule:nonzero;fill:rgb(0%,0%,0%);fill-opacity:1;" d="M 73.175781 32.773438 L 75.210938 32.773438 L 75.210938 39.820312 L 73.175781 39.820312 Z M 73.175781 32.773438 "/>
<path style=" stroke:none;fill-rule:nonzero;fill:rgb(0%,0%,0%);fill-opacity:1;" d="M 85.390625 29.40625 C 86.996094 32.285156 85.953125 35.914062 83.066406 37.511719 C 80.179688 39.113281 76.539062 38.074219 74.933594 35.195312 C 74.503906 34.429688 74.253906 33.578125 74.195312 32.703125 C 73.972656 35.992188 71.117188 38.472656 67.820312 38.25 C 64.527344 38.027344 62.035156 35.179688 62.261719 31.894531 C 62.484375 28.609375 65.335938 26.128906 68.632812 26.351562 C 69.5 26.410156 70.339844 26.65625 71.113281 27.074219 C 68.289062 25.382812 67.363281 21.722656 69.058594 18.898438 C 70.753906 16.070312 74.425781 15.148438 77.261719 16.839844 C 80.097656 18.527344 81.023438 22.1875 79.328125 25.015625 C 78.816406 25.867188 78.101562 26.574219 77.253906 27.085938 C 80.144531 25.488281 83.785156 26.527344 85.390625 29.40625 Z M 85.390625 29.40625 "/>
<path style=" stroke:none;fill-rule:nonzero;fill:rgb(0%,0%,0%);fill-opacity:1;" d="M 23.785156 74.867188 L 25.820312 74.867188 L 25.820312 81.914062 L 23.785156 81.914062 Z M 23.785156 74.867188 "/>
<path style=" stroke:none;fill-rule:nonzero;fill:rgb(0%,0%,0%);fill-opacity:1;" d="M 36 71.5 C 37.605469 74.375 36.5625 78.007812 33.675781 79.605469 C 30.789062 81.203125 27.148438 80.167969 25.542969 77.289062 C 25.117188 76.523438 24.863281 75.671875 24.804688 74.796875 C 24.582031 78.085938 21.726562 80.566406 18.429688 80.34375 C 15.136719 80.121094 12.644531 77.273438 12.871094 73.988281 C 13.09375 70.703125 15.949219 68.222656 19.242188 68.445312 C 20.109375 68.503906 20.949219 68.75 21.722656 69.167969 C 18.898438 67.476562 17.972656 63.816406 19.667969 60.992188 C 21.363281 58.164062 25.035156 57.242188 27.871094 58.933594 C 30.707031 60.621094 31.632812 64.28125 29.9375 67.109375 C 29.425781 67.960938 28.710938 68.667969 27.863281 69.179688 C 30.753906 67.582031 34.394531 68.621094 36 71.5 Z M 36 71.5 "/>
<path style=" stroke:none;fill-rule:nonzero;fill:rgb(0%,0%,0%);fill-opacity:1;" d="M 23.785156 107.226562 L 25.820312 107.226562 L 25.820312 100.179688 L 23.785156 100.179688 Z M 23.785156 107.226562 "/>
<path style=" stroke:none;fill-rule:nonzero;fill:rgb(0%,0%,0%);fill-opacity:1;" d="M 36 110.59375 C 37.605469 107.714844 36.5625 104.085938 33.675781 102.488281 C 30.789062 100.886719 27.148438 101.925781 25.542969 104.804688 C 25.117188 105.570312 24.863281 106.421875 24.804688 107.296875 C 24.582031 104.007812 21.726562 101.527344 18.429688 101.75 C 15.136719 101.972656 12.644531 104.820312 12.871094 108.101562 C 13.09375 111.386719 15.949219 113.871094 19.242188 113.648438 C 20.109375 113.589844 20.949219 113.34375 21.722656 112.925781 C 18.898438 114.617188 17.972656 118.277344 19.667969 121.101562 C 21.363281 123.929688 25.035156 124.851562 27.871094 123.160156 C 30.707031 121.472656 31.632812 117.8125 29.9375 114.984375 C 29.425781 114.132812 28.710938 113.425781 27.863281 112.914062 C 30.753906 114.511719 34.394531 113.472656 36 110.59375 Z M 36 110.59375 "/>
<path style=" stroke:none;fill-rule:nonzero;fill:rgb(0%,0%,0%);fill-opacity:1;" d="M 73.175781 107.226562 L 75.210938 107.226562 L 75.210938 100.179688 L 73.175781 100.179688 Z M 73.175781 107.226562 "/>
<path style=" stroke:none;fill-rule:nonzero;fill:rgb(0%,0%,0%);fill-opacity:1;" d="M 85.390625 110.59375 C 86.996094 107.714844 85.953125 104.085938 83.066406 102.488281 C 80.179688 100.886719 76.539062 101.925781 74.933594 104.804688 C 74.503906 105.570312 74.253906 106.421875 74.195312 107.296875 C 73.972656 104.007812 71.117188 101.527344 67.820312 101.75 C 64.527344 101.972656 62.035156 104.820312 62.261719 108.101562 C 62.484375 111.386719 65.335938 113.871094 68.632812 113.648438 C 69.5 113.589844 70.339844 113.34375 71.113281 112.925781 C 68.289062 114.617188 67.363281 118.277344 69.058594 121.101562 C 70.753906 123.929688 74.425781 124.851562 77.261719 123.160156 C 80.097656 121.472656 81.023438 117.8125 79.328125 114.984375 C 78.816406 114.132812 78.101562 113.425781 77.253906 112.914062 C 80.144531 114.511719 83.785156 113.472656 85.390625 110.59375 Z M 85.390625 110.59375 "/>
<path style=" stroke:none;fill-rule:nonzero;fill:rgb(0%,0%,0%);fill-opacity:1;" d="M 11.261719 11.300781 C 11.261719 12.503906 10.917969 13.453125 10.230469 14.152344 C 9.542969 14.851562 8.609375 15.199219 7.421875 15.199219 C 4.671875 15.199219 3.296875 13.273438 3.296875 9.417969 C 3.296875 7.71875 3.59375 6.339844 4.1875 5.285156 C 4.921875 3.953125 6.066406 3.285156 7.617188 3.285156 C 8.511719 3.285156 9.257812 3.472656 9.851562 3.847656 C 10.5625 4.289062 10.917969 4.941406 10.917969 5.796875 C 10.917969 5.984375 10.785156 6.078125 10.523438 6.078125 L 9.339844 6.078125 C 9.183594 6.078125 9.054688 5.988281 8.945312 5.8125 C 8.792969 5.546875 8.667969 5.375 8.578125 5.300781 C 8.359375 5.121094 8.039062 5.03125 7.617188 5.03125 C 6.90625 5.03125 6.351562 5.367188 5.957031 6.039062 C 5.648438 6.582031 5.472656 7.246094 5.4375 8.035156 C 6.0625 7.53125 6.808594 7.28125 7.679688 7.28125 C 8.785156 7.28125 9.667969 7.675781 10.324219 8.46875 C 10.949219 9.214844 11.261719 10.160156 11.261719 11.300781 Z M 9.171875 11.253906 C 9.171875 10.636719 9.019531 10.125 8.714844 9.726562 C 8.378906 9.28125 7.914062 9.058594 7.320312 9.058594 C 6.730469 9.058594 6.273438 9.28125 5.941406 9.726562 C 5.640625 10.125 5.492188 10.636719 5.492188 11.253906 C 5.492188 11.84375 5.648438 12.34375 5.964844 12.753906 C 6.308594 13.203125 6.761719 13.429688 7.328125 13.429688 C 7.90625 13.429688 8.363281 13.207031 8.707031 12.761719 C 9.015625 12.355469 9.171875 11.851562 9.171875 11.253906 Z M 9.171875 11.253906 "/>
<path style=" stroke:none;fill-rule:nonzero;fill:rgb(0%,0%,0%);fill-opacity:1;" d="M 87.738281 128.699219 C 87.738281 127.496094 88.082031 126.546875 88.769531 125.847656 C 89.457031 125.148438 90.390625 124.800781 91.578125 124.800781 C 94.328125 124.800781 95.703125 126.726562 95.703125 130.582031 C 95.703125 132.28125 95.40625 133.660156 94.8125 134.714844 C 94.078125 136.046875 92.933594 136.714844 91.382812 136.714844 C 90.488281 136.714844 89.742188 136.527344 89.148438 136.152344 C 88.4375 135.710938 88.082031 135.058594 88.082031 134.203125 C 88.082031 134.015625 88.214844 133.921875 88.476562 133.921875 L 89.660156 133.921875 C 89.816406 133.921875 89.945312 134.011719 90.054688 134.1875 C 90.207031 134.453125 90.332031 134.625 90.421875 134.699219 C 90.640625 134.878906 90.960938 134.96875 91.382812 134.96875 C 92.09375 134.96875 92.648438 134.632812 93.042969 133.960938 C 93.351562 133.417969 93.527344 132.753906 93.5625 131.964844 C 92.9375 132.46875 92.191406 132.71875 91.320312 132.71875 C 90.214844 132.71875 89.332031 132.324219 88.675781 131.53125 C 88.050781 130.785156 87.738281 129.839844 87.738281 128.699219 Z M 89.828125 128.746094 C 89.828125 129.363281 89.980469 129.875 90.285156 130.273438 C 90.621094 130.71875 91.085938 130.941406 91.679688 130.941406 C 92.269531 130.941406 92.726562 130.71875 93.058594 130.273438 C 93.359375 129.875 93.507812 129.363281 93.507812 128.746094 C 93.507812 128.15625 93.351562 127.65625 93.035156 127.246094 C 92.691406 126.796875 92.238281 126.570312 91.671875 126.570312 C 91.09375 126.570312 90.636719 126.792969 90.292969 127.238281 C 89.984375 127.644531 89.828125 128.148438 89.828125 128.746094 Z M 89.828125 128.746094 "/>
</g>
</svg>

<svg xmlns="http://www.w3.org/2000/svg" width="99" height="140"><path d="M9.298 719.743h215.404c4.93 0 8.92 4.005 8.92 8.938v314.362c0 4.934-3.99 8.938-8.92 8.938H9.298c-4.93 0-8.92-4.004-8.92-8.938V728.681c0-4.933 3.99-8.938 8.92-8.938Zm0 0" style="fill-rule:nonzero;fill:#fff;fill-opacity:1;stroke-width:.756;stroke-linecap:butt;stroke-linejoin:miter;stroke:gray;stroke-opacity:1;stroke-miterlimit:4" transform="matrix(.42308 0 0 .42042 0 -302.435)"/><path d="M73.176 74.867h2.035v7.047h-2.035Zm0 0" style="stroke:none;fill-rule:nonzero;fill:#000;fill-opacity:1"/><path d="M85.39 71.5c1.606 2.875.563 6.508-2.324 8.105-2.886 1.598-6.527.563-8.132-2.316a5.894 5.894 0 0 1-.739-2.492c-.222 3.289-3.078 5.77-6.375 5.547-3.293-.223-5.785-3.07-5.558-6.356.222-3.285 3.074-5.765 6.37-5.543a6.063 6.063 0 0 1 2.481.723c-2.824-1.691-3.75-5.352-2.054-8.176a5.99 5.99 0 0 1 8.203-2.058 5.95 5.95 0 0 1 2.066 8.175 6.08 6.08 0 0 1-2.074 2.07c2.89-1.597 6.531-.558 8.137 2.321ZM23.785 32.773h2.035v7.047h-2.035Zm0 0" style="stroke:none;fill-rule:nonzero;fill:#000;fill-opacity:1"/><path d="M36 29.406a5.95 5.95 0 0 1-2.324 8.106 5.989 5.989 0 0 1-8.133-2.317 5.95 5.95 0 0 1-.738-2.492c-.223 3.29-3.078 5.77-6.375 5.547-3.293-.223-5.785-3.07-5.559-6.355.223-3.286 3.078-5.766 6.371-5.543a6.063 6.063 0 0 1 2.48.722c-2.824-1.691-3.75-5.351-2.054-8.176a5.99 5.99 0 0 1 8.203-2.058 5.95 5.95 0 0 1 2.067 8.176 6.08 6.08 0 0 1-2.075 2.07c2.89-1.598 6.532-.559 8.137 2.32ZM6.938 23.441h.68v2.348h-.68Zm0 0" style="stroke:none;fill-rule:nonzero;fill:#000;fill-opacity:1"/><path d="M11.012 22.316c.535.961.187 2.172-.774 2.704a2.002 2.002 0 0 1-2.715-.774 1.997 1.997 0 0 1-.246-.828 1.99 1.99 0 0 1-2.12 1.848A1.99 1.99 0 0 1 3.3 23.148a1.99 1.99 0 0 1 2.125-1.847c.289.02.57.101.824.238a1.988 1.988 0 0 1-.684-2.727 1.998 1.998 0 0 1 2.735-.683 1.982 1.982 0 0 1-.004 3.414 2.005 2.005 0 0 1 2.715.773ZM91.621 116.559h.68v-2.348h-.68Zm0 0" style="stroke:none;fill-rule:nonzero;fill:#000;fill-opacity:1"/><path d="M95.691 117.684a1.981 1.981 0 0 0-.773-2.704 1.998 1.998 0 0 0-2.711.774c-.14.254-.227.539-.246.828a1.99 1.99 0 0 0-2.125-1.848 1.988 1.988 0 1 0 .273 3.965c.286-.02.567-.101.825-.238a1.985 1.985 0 0 0-.684 2.727 1.997 1.997 0 0 0 2.734.683 1.982 1.982 0 0 0-.004-3.414 2 2 0 0 0 2.711-.773ZM73.176 32.773h2.035v7.047h-2.035Zm0 0" style="stroke:none;fill-rule:nonzero;fill:#000;fill-opacity:1"/><path d="M85.39 29.406a5.95 5.95 0 0 1-2.324 8.106 5.989 5.989 0 0 1-8.132-2.317 5.894 5.894 0 0 1-.739-2.492c-.222 3.29-3.078 5.77-6.375 5.547-3.293-.223-5.785-3.07-5.558-6.355.222-3.286 3.074-5.766 6.37-5.543a6.063 6.063 0 0 1 2.481.722c-2.824-1.691-3.75-5.351-2.054-8.176a5.99 5.99 0 0 1 8.203-2.058 5.95 5.95 0 0 1 2.066 8.176 6.08 6.08 0 0 1-2.074 2.07c2.89-1.598 6.531-.559 8.137 2.32ZM23.785 74.867h2.035v7.047h-2.035Zm0 0" style="stroke:none;fill-rule:nonzero;fill:#000;fill-opacity:1"/><path d="M36 71.5c1.605 2.875.563 6.508-2.324 8.105-2.887 1.598-6.528.563-8.133-2.316a5.95 5.95 0 0 1-.738-2.492c-.223 3.289-3.078 5.77-6.375 5.547-3.293-.223-5.785-3.07-5.559-6.356.223-3.285 3.078-5.765 6.371-5.543a6.063 6.063 0 0 1 2.48.723c-2.824-1.691-3.75-5.352-2.054-8.176a5.99 5.99 0 0 1 8.203-2.058 5.95 5.95 0 0 1 2.067 8.175 6.08 6.08 0 0 1-2.075 2.07c2.89-1.597 6.532-.558 8.137 2.321ZM23.785 107.227h2.035v-7.047h-2.035Zm0 0" style="stroke:none;fill-rule:nonzero;fill:#000;fill-opacity:1"/><path d="M36 110.594a5.95 5.95 0 0 0-2.324-8.106 5.989 5.989 0 0 0-8.133 2.317 5.95 5.95 0 0 0-.738 2.492c-.223-3.29-3.078-5.77-6.375-5.547-3.293.223-5.785 3.07-5.559 6.352.223 3.285 3.078 5.77 6.371 5.546a6.063 6.063 0 0 0 2.48-.722c-2.824 1.691-3.75 5.351-2.054 8.176a5.99 5.99 0 0 0 8.203 2.058 5.95 5.95 0 0 0 2.067-8.176 6.08 6.08 0 0 0-2.075-2.07c2.89 1.598 6.532.559 8.137-2.32ZM73.176 107.227h2.035v-7.047h-2.035Zm0 0" style="stroke:none;fill-rule:nonzero;fill:#000;fill-opacity:1"/><path d="M85.39 110.594a5.95 5.95 0 0 0-2.324-8.106 5.989 5.989 0 0 0-8.132 2.317 5.894 5.894 0 0 0-.739 2.492c-.222-3.29-3.078-5.77-6.375-5.547-3.293.223-5.785 3.07-5.558 6.352.222 3.285 3.074 5.77 6.37 5.546a6.063 6.063 0 0 0 2.481-.722c-2.824 1.691-3.75 5.351-2.054 8.176a5.99 5.99 0 0 0 8.203 2.058 5.95 5.95 0 0 0 2.066-8.176 6.08 6.08 0 0 0-2.074-2.07c2.89 1.598 6.531.559 8.137-2.32ZM11.262 11.3c0 1.204-.344 2.153-1.032 2.852-.687.7-1.62 1.047-2.808 1.047-2.75 0-4.125-1.926-4.125-5.781 0-1.7.297-3.078.89-4.133.735-1.332 1.88-2 3.43-2 .895 0 1.64.188 2.235.563.71.441 1.066 1.093 1.066 1.949 0 .187-.133.281-.395.281H9.34c-.156 0-.285-.09-.395-.266-.152-.265-.277-.437-.367-.511-.219-.18-.539-.27-.96-.27-.712 0-1.266.336-1.661 1.008-.309.543-.484 1.207-.52 1.996.625-.504 1.372-.754 2.243-.754 1.105 0 1.988.395 2.644 1.188.625.746.938 1.691.938 2.832Zm-2.09-.046c0-.617-.152-1.129-.457-1.527-.336-.446-.8-.668-1.395-.668-.59 0-1.047.222-1.379.668-.3.398-.449.91-.449 1.527 0 .59.156 1.09.473 1.5.344.45.797.676 1.363.676.578 0 1.035-.223 1.379-.668.309-.407.465-.91.465-1.508ZM87.738 128.7c0-1.204.344-2.153 1.032-2.852.687-.7 1.62-1.047 2.808-1.047 2.75 0 4.125 1.926 4.125 5.781 0 1.7-.297 3.078-.89 4.133-.735 1.332-1.88 2-3.43 2-.895 0-1.64-.188-2.235-.563-.71-.441-1.066-1.093-1.066-1.949 0-.187.133-.281.395-.281h1.183c.156 0 .285.09.395.266.152.265.277.437.367.511.219.18.539.27.96.27.712 0 1.266-.336 1.661-1.008.309-.543.484-1.207.52-1.996-.626.504-1.372.754-2.243.754-1.105 0-1.988-.395-2.644-1.188-.625-.746-.938-1.691-.938-2.832Zm2.09.046c0 .617.152 1.129.457 1.527.336.446.8.668 1.395.668.59 0 1.047-.222 1.379-.668.3-.398.449-.91.449-1.527 0-.59-.156-1.09-.473-1.5a1.633 1.633 0 0 0-1.363-.676c-.578 0-1.035.223-1.379.668-.309.407-.465.91-.465 1.508Zm0 0" style="stroke:none;fill-rule:nonzero;fill:#000;fill-opacity:1"/></svg>
